**kern	**dynam
*clefG2	*
*k[b-e-]	*
*B-:	*
*M2/4	*
=1	=1
4.dd	p
(>24ee-LL	.
24dd'	.
24ccJJ)	.
=2	=2
4.b-	.
(<24gLL	.
24f	.
24e-JJ)	.
=3	=3
8d'L	.
8c'	.
8d'	.
8e-'J	.
=4	=4
8f'L	.
8g'	.
8f'	.
8e-'J	.
=5	=5
8d'L	.
8f'	.
8e-'	.
8d'J	.
=6	=6
8cL	.
8B-J	.
4r	.
=7	=7
4.dd	f
(>24ee-LL	.
24dd	.
24ccJJ)	.
=8	=8
4b-	.
4r	.
=9	=9
4.cc	.
(>24ddLL	.
24cc	.
24b-JJ)	.
=10	=10
!!linebreak:original
4a	.
4r	.
=11	=11
4.b-	.
(>24ccLL	.
24b-	.
24aJJ)	.
=12	=12
4g	.
4r	.
=13	=13
8f	.
8r	.
8f	.
8r	.
=14	=14
8f	.
8r	.
8f	.
8r	.
=15	=15
8f	.
8r	.
8f	.
8r	.
=16	=16
8f	.
4ff	.
8een	.
=17	=17
4ff	.
4r	.
=18	=18
4.cc	p
(>24ffLL	.
24een	.
24ddJJ)	.
=19	=19
4cc	.
4r	.
=20	=20
2r	.
=21	=21
2r	.
=22	=22
!!linebreak:original
4.cc	.
(>24ffLL	.
24een'	.
24ddJJ)	.
=23	=23
4cc	.
4r	.
=24	=24
8ddL	f
8a'	.
8b-'	.
8g'J	.
=25	=25
8a	.
4f	.
8en	.
=26	=26
4f	.
4f 4a	.
=27	=27
4f 4a	.
4r	.
=28:|!|:	=28:|!|:
4.cc	.
(>24ddLL	.
24cc	.
24b-JJ)	.
=29	=29
8a'L	.
8b-'	.
8cc'	.
8dd'J	.
=30	=30
(>8ee-L	.
8cc)	.
(>8ee-	.
8ccJ)	.
=31	=31
(>8ee-L	.
8ccJ)	.
4r	.
=32	=32
4.dd	.
(>24ee-LL	.
24dd'	.
24ccJJ)	.
=33	=33
!!linebreak:original
8b-'L	.
8cc'	.
8dd'	.
8ee-'J	.
=34	=34
(8ffL	.
8ddJ)	.
(8ffL	.
8ddJ)	.
=35	=35
(8ffL	.
8ddJ)	.
4r	.
=36	=36
(>4.ee-	.
24ffLL	.
24ee-	.
24ddJJ	.
=37	=37
4cc)	.
4r	.
=38	=38
4.dd	.
(>24ee-LL	.
24dd	.
24ccJJ)	.
=39	=39
4b-	.
4r	.
=40	=40
(<16fLL	.
16g	.
16a	.
16b-JJ)	.
4cc	.
=41	=41
4a	.
4r	.
=42	=42
4.dd	p
(>24ee-LL	.
24dd	.
24ccJJ)	.
=43	=43
4.b-	.
(<24gLL	.
24f	.
24e-JJ)	.
=44	=44
!!linebreak:original
8d'L	.
8c'	.
8d'	.
8e-'J	.
=45	=45
8fL	.
8g	.
8f	.
8e-J	.
=46	=46
8d'L	.
8f'	.
8e-'	.
8d'J	.
=47	=47
8cL	.
8B-J	.
4r	.
=48	=48
4.gg	f
(>24aa-XLL	.
24gg	.
24ffJJ)	.
=49	=49
4gg	.
4r	.
=50	=50
4.ff	.
(>24ggLL	.
24ff	.
24ee-JJ)	.
=51	=51
4dd	.
4r	.
=52	=52
4.ee-	.
(>24ffLL	.
24ee-	.
24ddJJ)	.
=53	=53
4cc	.
4r	.
=54	=54
8B-	.
8r	.
8B-	.
8r	.
=55	=55
8B-	.
8r	.
8B-	.
8r	.
=56	=56
!!linebreak:original
8B-	.
8r	.
8B-	.
8r	.
=57	=57
8B-	.
4b-	.
8a	.
=58	=58
4b-	.
4r	.
=59	=59
4.f	p
(<24b-LL	.
24a	.
24gJJ)	.
=60	=60
4f	.
4r	.
=61	=61
2r	.
=62	=62
2r	.
=63	=63
4.f	.
(<24b-LL	.
24a	.
24gJJ)	.
=64	=64
4f	.
4r	.
=65	=65
8gg'L	f
8dd'J	.
8ee-'L	.
8cc'J	.
=66	=66
8dd	.
4b-	.
8a	.
=67	=67
4b-	.
4d 4b-	.
=68	=68
4d 4b-	.
4r	.
=:|!	=:|!
*-	*-
!!!RDF**kern: > = above
!!!RDF**kern: < = below
